picto/quiet-zone.svg

<svg class="color-immutable" width="24" height="24" viewBox="0 0 24 24" fill="none" xmlns="http://www.w3.org/2000/svg"><path d="M0 22.5V1.5C0 0.675 0.675 0 1.5 0H22.5C23.325 0 24 0.675 24 1.5V22.5C24 23.325 23.325 24 22.5 24H1.5C0.675 24 0 23.325 0 22.5Z" fill="#2D327D"/><path d="M7.77797 3.70897C7.46297 3.46797 7.07097 3.32397 6.64297 3.32397C6.26697 3.32397 5.91797 3.43597 5.62397 3.62597L2.98297 5.14997H7.77797V3.70897Z" fill="white"/><path d="M10.41 7.648C12.2 7.396 13.827 6.639 15.143 5.526H10.41V7.648Z" fill="white"/><path d="M10.41 5.15H15.205L12.564 3.625H12.563C12.27 3.435 11.92 3.323 11.544 3.323C11.117 3.323 10.724 3.467 10.409 3.708V5.15H10.41Z" fill="white"/><path d="M7.77798 5.52502H3.04498C4.36098 6.63802 5.98898 7.39502 7.77798 7.64702V5.52502Z" fill="white"/><path d="M15.8459 10.064C15.3279 10.064 14.9089 10.484 14.9089 11.001V13.451H14.5329V9.869C14.5329 9.351 14.1129 8.932 13.5959 8.932C13.0779 8.932 12.6589 9.352 12.6589 9.869V12.719H12.2829V9.121C12.2829 8.603 11.8639 8.184 11.3459 8.184C10.8279 8.184 10.4079 8.603 10.4079 9.121V11.948H10.0329V3.917C10.0329 3.399 9.61395 2.979 9.09494 2.979C8.57694 2.979 8.15794 3.399 8.15794 3.917V14.23H7.78094L7.77994 14.231V11.823C7.77994 11.228 7.40594 10.698 6.84394 10.499C6.76994 10.473 6.69094 10.459 6.60994 10.459C6.22394 10.459 5.90894 10.774 5.90894 11.16V15.684L5.90594 15.686C5.90594 16.154 6.00294 16.637 6.15894 17.014C6.31394 17.391 7.80894 21 7.80894 21L15.5859 20.999L16.5459 18.672C16.7049 18.257 16.7829 17.818 16.7829 17.347C16.7829 17.283 16.7829 11.002 16.7829 11.002C16.7829 10.484 16.3639 10.064 15.8459 10.064Z" fill="white"/></svg>

<svg class="color-immutable" width="24" height="24" viewBox="0 0 24 24" fill="none" xmlns="http://www.w3.org/2000/svg"><g clip-path="url(#a)"><path d="M0 22.5v-21C0 .675.675 0 1.5 0h21c.825 0 1.5.675 1.5 1.5v21c0 .825-.675 1.5-1.5 1.5h-21C.675 24 0 23.325 0 22.5Z" fill="#2D327D"/><path d="M7.778 3.709a1.87 1.87 0 0 0-2.154-.083L2.983 5.15h4.795V3.709ZM10.41 7.648a9.338 9.338 0 0 0 4.733-2.122H10.41v2.122ZM10.41 5.15h4.795l-2.641-1.525h-.001a1.868 1.868 0 0 0-2.154.083V5.15h.001ZM7.778 5.525H3.045a9.341 9.341 0 0 0 4.733 2.122V5.525Z" fill="#fff"/><path d="M15.846 10.064a.937.937 0 0 0-.937.937v2.45h-.376V9.869a.937.937 0 1 0-1.874 0v2.85h-.376V9.121a.936.936 0 1 0-1.875 0v2.827h-.375V3.917a.937.937 0 1 0-1.875 0V14.23H7.78l-.001.001v-2.408c0-.595-.374-1.125-.936-1.324a.702.702 0 0 0-.935.661v4.524l-.003.002c0 .468.097.951.253 1.328L7.809 21l7.777-.001.96-2.327a3.66 3.66 0 0 0 .237-1.325v-6.345a.937.937 0 0 0-.937-.938Z" fill="#fff"/></g><defs><clipPath id="a"><path fill="#fff" d="M0 0h24v24H0z"/></clipPath></defs></svg>
